src/assets/Devices/Generic Gyro.svg

<svg width="870" height="613" viewBox="0 0 870 613" fill="none" xmlns="http://www.w3.org/2000/svg">
<path d="M68.9705 117.273C88.7475 72.0681 111.35 48.9504 156.555 45.6987C349.28 31.8358 521.306 31.9265 714.039 45.6987C754.535 48.5925 781.846 72.0681 801.623 117.273C821.4 162.478 866.625 342.355 866.625 461.017C866.625 579.679 800.701 604.165 793.167 606.049C792.231 606.283 791.252 606.589 790.23 606.909C788.73 607.379 787.139 607.877 785.464 608.214C784.548 608.695 783.507 609.06 782.326 609.289C765.374 612.585 722.053 589.041 698.038 558.905C689.424 548.096 684.601 533.496 680.183 520.121C677.303 511.401 674.594 503.202 671.12 496.914C665.064 485.955 660.246 477.234 656.6 473.204C647.653 463.316 625.993 443.068 598.211 443.068H272.36C244.578 443.068 222.918 463.316 213.971 473.204C210.325 477.234 205.507 485.955 199.451 496.914C196.307 502.605 192.828 510.823 189.007 519.85C182.131 536.095 174.146 554.961 164.999 566.439C140.984 596.575 105.197 612.585 88.2454 609.289C87.0584 609.058 86.0118 608.691 85.0929 608.207C83.4313 607.869 81.8529 607.375 80.3634 606.909C79.342 606.589 78.3624 606.283 77.4264 606.049C69.8923 604.165 3.96875 579.679 3.96875 461.017C3.96875 342.355 49.1934 162.478 68.9705 117.273Z" stroke="white" stroke-width="6"/>
<path d="M271.798 21.8328C280.624 29.6095 290.712 36.5865 310.888 37.1459C339.097 36.35 366.298 35.8327 393.152 35.5765C315.9 36.4676 238.079 39.835 156.554 45.6992C128.224 47.7369 108.771 57.5771 93.3281 75.7662C110.234 44.8169 131.279 28.609 166.893 25.9072C182.375 24.7328 196.551 23.0734 210.474 21.4437C226.722 19.5418 242.625 17.6803 259.856 16.6769C262.702 16.5112 265.622 17.4368 267.949 19.0828C268.294 19.3265 268.64 19.5707 268.976 19.8076C270.382 20.8005 271.608 21.6654 271.798 21.8328Z" stroke="white" stroke-width="2"/>
<path d="M778.392 78.3896C760.319 45.6423 736.501 28.3793 703.698 25.9072C688.177 24.7375 673.967 23.0787 660.009 21.4493C643.789 19.5557 627.908 17.7019 610.705 16.7016C607.863 16.5363 604.946 17.4588 602.62 19.1015C602.284 19.339 601.947 19.5768 601.619 19.8078C600.211 20.8011 598.982 21.6676 598.794 21.8328C589.967 29.6095 577.778 36.6481 559.704 37.1459C536.371 36.5325 513.729 36.0732 491.404 35.7779C564.077 36.9115 637.422 40.2243 714.038 45.6992C740.648 47.6006 761.565 58.389 778.392 78.3896Z" stroke="white" stroke-width="2"/>
</svg>

<svg width="870" height="613" fill="none" xmlns="http://www.w3.org/2000/svg"><path d="M68.972 117.273c19.777-45.205 42.379-68.323 87.584-71.574 192.725-13.863 364.751-13.773 557.484 0 40.496 2.893 67.807 26.37 87.584 71.574 19.777 45.204 65.002 225.081 65.002 343.744 0 118.662-65.924 143.148-73.458 145.032-.936.234-1.915.54-2.937.86-1.5.47-3.091.968-4.766 1.305-.916.481-1.957.845-3.138 1.075-16.952 3.296-60.273-20.248-84.288-50.384-8.614-10.809-13.437-25.409-17.855-38.784-2.88-8.72-5.589-16.919-9.063-23.207-6.056-10.959-10.874-19.68-14.52-23.71-8.947-9.888-30.607-30.136-58.389-30.136H272.361c-27.782 0-49.442 20.248-58.389 30.136-3.646 4.03-8.464 12.751-14.52 23.71-3.145 5.691-6.623 13.909-10.444 22.936-6.876 16.245-14.861 35.111-24.008 46.589-24.015 30.136-59.802 46.146-76.754 42.85-1.187-.231-2.233-.598-3.152-1.082-1.662-.338-3.24-.832-4.73-1.298-1.021-.32-2-.626-2.937-.86-7.534-1.884-73.457-26.37-73.457-145.032 0-118.663 45.224-298.54 65.002-343.744Z" stroke="#fff" stroke-width="6"/><path d="M271.8 21.833c8.826 7.776 18.914 14.753 39.09 15.313a4390.08 4390.08 0 0 1 82.264-1.57c-77.252.892-155.073 4.259-236.598 10.123-28.33 2.038-47.783 11.878-63.226 30.067 16.906-30.95 37.951-47.157 73.565-49.859 15.482-1.174 29.658-2.834 43.581-4.463 16.248-1.902 32.151-3.764 49.382-4.767 2.846-.166 5.765.76 8.093 2.406l1.026.725c1.407.992 2.633 1.857 2.823 2.025ZM778.394 78.39c-18.073-32.748-41.891-50.01-74.694-52.483-15.521-1.17-29.731-2.829-43.689-4.458-16.221-1.893-32.101-3.747-49.304-4.748-2.842-.165-5.759.758-8.085 2.4l-1.001.707c-1.408.993-2.637 1.86-2.825 2.025-8.827 7.776-21.016 14.815-39.09 15.313a5222.115 5222.115 0 0 0-68.3-1.368c72.673 1.133 146.018 4.446 222.634 9.921 26.61 1.901 47.527 12.69 64.354 32.69Z" stroke="#fff" stroke-width="2"/></svg>
